X:38
T:Bartlett House
M:2/2
L:1/8
C:Thomas Bray, 1699
S:Colin Hume's website,  colinhume.com  - chords can also be printed below the stave.
Q:1/2=96
K:Bb
P:A
|: "Bb"bagf "Eb"gfed | "Cm"edcB "F"A2F2 | "Eb"GAB2 "F"A2F2 | "F"A2c2 "/"c4 |\
"Cm"efg2 "/"e2g2 | "Bb"def2 "F/A"c2f2 | "Gm"d2cB "Cm"G2c2 | "F"F2A2 "Bb"B4 :|
P:B
|: "Bb"fdBd "/"fdcB | "F"AGAB "/"cAGF | "Bb"Bcde "F/A"f2ga | "Gm"b2g2 "/"g3a |\
"Bb"bfd2 "Cm"g2c2 | "Bb"fdB2 "F7"e2A2 | "Gm"dBG2 "F7"F2f2 | "Bb"d2B2 "/"B4 :|

